packages/sources/assets/src/assets/flag-ai.svg

<svg width="28" height="20" viewBox="0 0 28 20" fill="none" xmlns="http://www.w3.org/2000/svg">
<rect width="28" height="20" rx="2" fill="white"/>
<mask id="mask0_503_4735" style="mask-type:alpha" maskUnits="userSpaceOnUse" x="0" y="0" width="28" height="20">
<rect width="28" height="20" rx="2" fill="white"/>
</mask>
<g mask="url(#mask0_503_4735)">
<rect width="28" height="20" fill="#0A17A7"/>
<path fill-rule="evenodd" clip-rule="evenodd" d="M17.3335 10C17.3335 8.00002 17.3335 6.66669 17.3335 6.66669L18.6668 7.33335L20.0002 6.66669L21.3335 7.33335L22.6668 6.66669C22.6668 6.66669 22.6668 8.00002 22.6668 10C22.6668 12 20.0002 13.3334 20.0002 13.3334C20.0002 13.3334 17.3335 12 17.3335 10Z" fill="white"/>
<mask id="mask1_503_4735" style="mask-type:alpha" maskUnits="userSpaceOnUse" x="17" y="6" width="6" height="8">
<path fill-rule="evenodd" clip-rule="evenodd" d="M17.3335 10C17.3335 8.00002 17.3335 6.66669 17.3335 6.66669L18.6668 7.33335L20.0002 6.66669L21.3335 7.33335L22.6668 6.66669C22.6668 6.66669 22.6668 8.00002 22.6668 10C22.6668 12 20.0002 13.3334 20.0002 13.3334C20.0002 13.3334 17.3335 12 17.3335 10Z" fill="white"/>
</mask>
<g mask="url(#mask1_503_4735)">
<rect x="17.3335" y="12" width="5.33333" height="1.33333" fill="#9ACCFF"/>
<path fill-rule="evenodd" clip-rule="evenodd" d="M20.0002 9.33333C20.3684 9.33333 20.6668 9.03486 20.6668 8.66667C20.6668 8.29848 20.3684 8 20.0002 8C19.632 8 19.3335 8.29848 19.3335 8.66667C19.3335 9.03486 19.632 9.33333 20.0002 9.33333ZM18.6667 10.6667C19.0349 10.6667 19.3333 10.3682 19.3333 10C19.3333 9.63181 19.0349 9.33333 18.6667 9.33333C18.2985 9.33333 18 9.63181 18 10C18 10.3682 18.2985 10.6667 18.6667 10.6667ZM21.9998 9.99998C21.9998 10.3682 21.7014 10.6666 21.3332 10.6666C20.965 10.6666 20.6665 10.3682 20.6665 9.99998C20.6665 9.63179 20.965 9.33331 21.3332 9.33331C21.7014 9.33331 21.9998 9.63179 21.9998 9.99998Z" fill="url(#paint0_linear_503_4735)"/>
</g>
<path d="M0 -0.333333H-0.901086L-0.21693 0.253086L4.33333 4.15331V5.16179L-0.193746 8.39542L-0.333333 8.49513V8.66667V9.33333V9.93475L0.176666 9.616L5.42893 6.33333H6.55984L11.0821 9.56351C11.176 9.6306 11.2886 9.66667 11.404 9.66667C11.9182 9.66667 12.1548 9.02698 11.7644 8.69237L7.66667 5.18002V4.17154L12.0542 1.03762C12.2294 0.912475 12.3333 0.710428 12.3333 0.495127V0V-0.601416L11.8233 -0.282666L6.57107 3H5.44016L0.860413 -0.271244L0.773488 -0.333333H0.666667H0Z" fill="#FF2E3B" stroke="white" stroke-width="0.666667"/>
<path fill-rule="evenodd" clip-rule="evenodd" d="M0 3.33333V6H4.66667V9.33333C4.66667 9.70152 4.96514 10 5.33333 10H6.66667C7.03486 10 7.33333 9.70152 7.33333 9.33333V6H12C12.3682 6 12.6667 5.70152 12.6667 5.33333V4C12.6667 3.63181 12.3682 3.33333 12 3.33333H7.33333V0H4.66667V3.33333H0Z" fill="white"/>
<path fill-rule="evenodd" clip-rule="evenodd" d="M0 4H5.33333V3.33333V0H6.66667V3.33333V4H12V5.33333H6.66667V6V9.33333H5.33333V6V5.33333H0V4Z" fill="#FF2E3B"/>
</g>
<defs>
<linearGradient id="paint0_linear_503_4735" x1="18" y1="8" x2="18" y2="10.6667" gradientUnits="userSpaceOnUse">
<stop stop-color="#FFA51B"/>
<stop offset="1" stop-color="#FF9A00"/>
</linearGradient>
</defs>
</svg>

<svg width="28" height="20" fill="none" xmlns="http://www.w3.org/2000/svg"><rect width="28" height="20" rx="2" fill="#fff"/><mask id="a" style="mask-type:alpha" maskUnits="userSpaceOnUse" x="0" y="0" width="28" height="20"><rect width="28" height="20" rx="2" fill="#fff"/></mask><g mask="url(#a)"><path fill="#0A17A7" d="M0 0h28v20H0z"/><path fill-rule="evenodd" clip-rule="evenodd" d="M17.334 10V6.667l1.333.666L20 6.667l1.334.666 1.333-.666V10c0 2-2.667 3.333-2.667 3.333S17.334 12 17.334 10Z" fill="#fff"/><mask id="b" style="mask-type:alpha" maskUnits="userSpaceOnUse" x="17" y="6" width="6" height="8"><path fill-rule="evenodd" clip-rule="evenodd" d="M17.334 10V6.667l1.333.666L20 6.667l1.334.666 1.333-.666V10c0 2-2.667 3.333-2.667 3.333S17.334 12 17.334 10Z" fill="#fff"/></mask><g mask="url(#b)"><path fill="#9ACCFF" d="M17.334 12h5.333v1.333h-5.333z"/><path fill-rule="evenodd" clip-rule="evenodd" d="M20 9.333A.667.667 0 1 0 20 8a.667.667 0 0 0 0 1.333Zm-1.333 1.334a.667.667 0 1 0 0-1.334.667.667 0 0 0 0 1.334ZM22 10a.667.667 0 1 1-1.333 0A.667.667 0 0 1 22 10Z" fill="url(#c)"/></g><path d="M0-.333h-.901l.684.586 4.55 3.9v1.009L-.194 8.395l-.14.1v1.44l.51-.319L5.43 6.333h1.13l4.523 3.23a.554.554 0 0 0 .682-.87L7.667 5.18V4.172l4.387-3.134a.667.667 0 0 0 .28-.543V-.6l-.51.318L6.57 3H5.44L.86-.271.772-.333H0Z" fill="#FF2E3B" stroke="#fff" stroke-width=".667"/><path fill-rule="evenodd" clip-rule="evenodd" d="M0 3.333V6h4.667v3.333c0 .369.298.667.666.667h1.334a.667.667 0 0 0 .666-.667V6H12a.667.667 0 0 0 .667-.667V4A.667.667 0 0 0 12 3.333H7.333V0H4.667v3.333H0Z" fill="#fff"/><path fill-rule="evenodd" clip-rule="evenodd" d="M0 4h5.333V0h1.334v4H12v1.333H6.667v4H5.333v-4H0V4Z" fill="#FF2E3B"/></g><defs><linearGradient id="c" x1="18" y1="8" x2="18" y2="10.667" gradientUnits="userSpaceOnUse"><stop stop-color="#FFA51B"/><stop offset="1" stop-color="#FF9A00"/></linearGradient></defs></svg>
